modules/themify-icons/icons/eye.svg

<?xml version="1.0" encoding="utf-8"?>
<!-- Generated by IcoMoon.io -->
<!DOCTYPE svg PUBLIC "-//W3C//DTD SVG 1.1//EN" "http://www.w3.org/Graphics/SVG/1.1/DTD/svg11.dtd">
<svg version="1.1" xmlns="http://www.w3.org/2000/svg" xmlns:xlink="http://www.w3.org/1999/xlink" width="17" height="17" viewBox="0 0 17 17">
<g>
</g>
	<path d="M16.965 8.817c-1.284-3.267-4.687-5.463-8.465-5.463s-7.181 2.196-8.465 5.463c-0.046 0.117-0.046 0.248 0 0.365 1.285 3.268 4.687 5.464 8.465 5.464s7.18-2.195 8.465-5.463c0.047-0.118 0.047-0.248 0-0.366zM8.5 13.646c-3.298 0-6.269-1.859-7.459-4.646 1.189-2.787 4.16-4.646 7.459-4.646s6.27 1.859 7.459 4.646c-1.19 2.786-4.161 4.646-7.459 4.646zM8.5 5.357c-2.009 0-3.643 1.634-3.643 3.643s1.634 3.643 3.644 3.643c2.008 0 3.643-1.634 3.643-3.643s-1.635-3.643-3.644-3.643zM8.5 11.643c-1.458 0-2.644-1.186-2.644-2.643s1.187-2.643 2.644-2.643c1.457 0 2.643 1.186 2.643 2.643s-1.185 2.643-2.643 2.643zM8.5 7.643c-0.748 0-1.357 0.609-1.357 1.357s0.609 1.357 1.357 1.357 1.357-0.609 1.357-1.357-0.609-1.357-1.357-1.357zM8.5 9.357c-0.197 0-0.357-0.16-0.357-0.357s0.16-0.357 0.357-0.357 0.357 0.16 0.357 0.357-0.16 0.357-0.357 0.357z" fill="#000000" />
</svg>

<svg xmlns="http://www.w3.org/2000/svg" width="17" height="17" viewBox="0 0 17 17"><path d="M16.965 8.817C15.681 5.55 12.278 3.354 8.5 3.354S1.319 5.55.035 8.817a.5.5 0 000 .365C1.32 12.45 4.722 14.646 8.5 14.646s7.18-2.195 8.465-5.463a.493.493 0 000-.366zM8.5 13.646c-3.298 0-6.269-1.859-7.459-4.646C2.23 6.213 5.201 4.354 8.5 4.354S14.77 6.213 15.959 9c-1.19 2.786-4.161 4.646-7.459 4.646zm0-8.289C6.491 5.357 4.857 6.991 4.857 9s1.634 3.643 3.644 3.643c2.008 0 3.643-1.634 3.643-3.643S10.509 5.357 8.5 5.357zm0 6.286c-1.458 0-2.644-1.186-2.644-2.643S7.043 6.357 8.5 6.357 11.143 7.543 11.143 9 9.958 11.643 8.5 11.643zm0-4c-.748 0-1.357.609-1.357 1.357s.609 1.357 1.357 1.357S9.857 9.748 9.857 9 9.248 7.643 8.5 7.643zm0 1.714a.357.357 0 110-.714.357.357 0 010 .714z"/></svg>
